!!!COM: Wesley Steenbergen
!!!OTL: How do you sleep
**kern
*part1
*staff1
*
*
*clefG2
*k[f#c#g#d#]
*E:
*M4/4
*MM83
=1
!LO:TX:a:t=[quarter]=83
8r
16eeLL
[16aJJ
16aKL]
8cc#
[16eeJk
16eeLL]
16a
16cc#
[16eeJJ
16eeLL]
16g#
16cc#
16eeJJ
=2
8r
16eeLL
[16aJJ
16aKL]
8cc#
[16eeJk
16eeLL]
16a
16cc#
[16eeJJ
16eeLL]
16b
16dd#
16ff#JJ
=3
8r
16gg#LL
[16bJJ
16bKL]
8ee
[16gg#Jk
16gg#LL]
16b
16ee
[16gg#JJ
16gg#LL]
16b
16ee
16gg#JJ
!!linebreak:original
=4
8r
16bLL
[16cc#JJ
16cc#KL]
8ff#
[16bJk
16bLL]
16dd#
16ff#
[16bJJ
16bLL]
16b
16dd#
16ff#JJ
=5!|:
8r
8f#
16g#KL
8.g#J
16g#LL
16f#J
8g#J
8g#L
16eL
[16f#JJ
=6
16f#KL]
8.g#J
4r
2r
!!linebreak:original
=7
8r
8f#
16g#KL
8.g#J
16bKL
8a
16g#Jk
8f#L
16eL
16eJJ
=8
4f#
4r
2r
=9
8r
8f#
16g#LL
16g#J
8f#J
16g#LL
16f#J
8g#J
8g#L
16eL
[16f#JJ
=10
16f#KL]
8.g#J
2r
16r
16eLL
16e
16f#JJ
!!linebreak:original
=11
16g#LL
16eJ
8eJ
8B
8r
16f#LL
16g#J
8g#J
16g#LL
16e
16e
16eJJ
=12
4f#
4r
8.r
16cc#
16cc#LL
16ee
16dd#
16cc#JJ
=13
8r
8ee
8ff#L
16eeL
[16ff#JJ
4ff#]
4r
=14
16eeKL
8.ff#J
16gg#LL
16ff#
16ee
[16ff#JJ
8ff#]
8r
16eeLL
16ff#J
8cc#J
!!linebreak:original
=15
8r
16eeLL
[16ff#JJ
16ff#KL]
8.ff#J
8ff#L
8ff#J
8bbL
16eeL
16eeJJ
=16
8dd#L
16cc#L
[16bJJ
2b]
16cc#LL
16ee
16dd#
16cc#JJ
=17
8r
8ee
8ff#L
16eeL
[16ff#JJ
4ff#]
4r
=18
16eeKL
8.ff#J
8ff#L
16eeL
[16ff#JJ
8ff#L]
8bJ
8ff#L
16ff#L
16gg#JJ
!!pagebreak:original
=19
8r
16eeLL
[16ff#JJ
16ff#KL]
8.ff#J
8ff#L
8ff#J
8bbL
16eeL
16eeJJ
=20
8dd#L
16cc#L
[16bJJ
4b]
16bKL
8.cc#J
4dd#
=21
16dd#LL
16eeJ
8eeJ
8eeL
16dd#L
16eeJJ
16cc#LL
16dd#
16b
[16cc#JJ
8cc#]
8r
=22
16bLL
16cc#J
8cc#J
16cc#LL
16b
16b
16bJJ
16cc#LL
16bJ
8bJ
16g#LL
16f#J
8eJ
!!linebreak:original
=23
16r
16f#LL
16g#
[16g#JJ
16g#LL]
16f#
16e
16f#JJ
16f#LL
16g#J
8g#J
8g#L
16eL
[16f#JJ
=24
16f#LL]
16BJJ
4.B
8bL
8cc#J
4dd#
=25
16dd#LL
16eeJ
8eeJ
8eeL
16dd#L
16eeJJ
16cc#LL
16dd#
16b
16cc#JJ
4b
!!linebreak:original
=26
16bLL
16cc#J
8cc#J
16cc#LL
16b
16b
16bJJ
16cc#LL
16bJ
8bJ
8eL
16f#L
16g#JJ
=27
16r
16f#LL
16g#
[16g#JJ
16g#LL]
16f#
16e
16f#JJ
16f#LL
16g#J
8g#J
8g#L
16eL
[16f#JJ
=28
16f#LL]
16BJJ
4.B
16bLL
16cc#J
8cc#J
16dd#LL
16dd#J
8dd#J
!!linebreak:original
=29
!LO:TX:a:t=Fine
8eeeL
16ggg#Jk
16r
8eeeL
16ggg#Jk
16r
4r
16ggg#LL
16fff#
16eee
16ddd#JJ
=30
8ccc#
8r
16ggg#LL
16fff#
16eee
16ddd#JJ
8ccc#L
16aaaJk
16r
8bbL
16bbbJk
16r
=31
8bb
8r
4r
16ff#KL
8gg#
[16gg#Jk
16gg#KL]
8ff#
16eeJk
!!linebreak:original
=32
8ff#L
16bL
[16bJJ
8b]
8r
16bLL
16cc#J
8cc#J
16dd#LL
16dd#J
8dd#J
=33:|!
8eeeL
16ggg#Jk
16r
8eeeL
16ggg#Jk
16r
4r
16ggg#LL
16fff#
16eee
16ddd#JJ
=34
8ccc#
8r
16ggg#LL
16fff#
16eee
16ddd#JJ
8ccc#L
16aaaJk
16r
8bbL
16bbbJk
16r
!!linebreak:original
=35
8bb
8r
4r
16ff#KL
8gg#
[16gg#Jk
16gg#KL]
8ff#
16eeJk
=36
8ff#L
16bL
[16bJJ
8b]
8r
16bKL
8.cc#J
4dd#
==
*-
!!!system-decoration: {(s1,s2)}
